X:1
T:Daloy Politsey
N:Original
C:
O:Yiddish
M:2/4
Q:1/4=120
L:1/8
K:F
z [P:A] A dA|dA BB|A>G FF|GG AA-|A z dA|
dA BB|A>G FF|EE DD-|D z dA|dA BB|
A>G FF|EE DD-|: D z [P:B] A2|F>E D2|
z A BG|GG G2| z2 AG|AB AG|
FE FD|DD D2:|z2 [P:C] A2-|A2 G2-|Gc A2|
AA G2|z G F2|FF E|A2 z2|D2 D2|
z2 A2-|A2 G2-|Gc A2|AA G2|
z G F2|FF E2|A2 z2|d2 d2|]

